src/catppuccin-frappe-maroon-cursors/wait-11_24.svg

<?xml version="1.0" encoding="UTF-8" standalone="no"?>
<svg
   id="svg5327"
   width="24"
   height="24"
   version="1.1"
   sodipodi:docname="wait-11_24.svg"
   inkscape:version="1.1.2 (0a00cf5339, 2022-02-04)"
   xmlns:inkscape="http://www.inkscape.org/namespaces/inkscape"
   xmlns:sodipodi="http://sodipodi.sourceforge.net/DTD/sodipodi-0.dtd"
   xmlns:xlink="http://www.w3.org/1999/xlink"
   xmlns="http://www.w3.org/2000/svg"
   xmlns:svg="http://www.w3.org/2000/svg">
  <sodipodi:namedview
     id="namedview22"
     pagecolor="#ffffff"
     bordercolor="#666666"
     borderopacity="1.0"
     inkscape:pageshadow="2"
     inkscape:pageopacity="0.0"
     inkscape:pagecheckerboard="0"
     showgrid="false"
     inkscape:snap-bbox="true"
     inkscape:snap-bbox-midpoints="true"
     inkscape:zoom="26.24"
     inkscape:cx="14.405488"
     inkscape:cy="13.262195"
     inkscape:window-width="1896"
     inkscape:window-height="1020"
     inkscape:window-x="9"
     inkscape:window-y="45"
     inkscape:window-maximized="1"
     inkscape:current-layer="svg5327" />
  <defs
     id="defs5329">
    <filter
       id="filter837"
       style="color-interpolation-filters:sRGB"
       width="1.12"
       height="1.12"
       x="-0.059999999"
       y="-0.059999999">
      <feGaussianBlur
         id="feGaussianBlur839"
         stdDeviation=".55" />
    </filter>
    <linearGradient
       id="linearGradient832"
       x1="21"
       x2="25"
       y1="16"
       y2="28"
       gradientTransform="matrix(1.1888112,0,0,1.1888112,-14.248251,-15.248253)"
       gradientUnits="userSpaceOnUse"
       xlink:href="#linearGradient830" />
    <linearGradient
       id="linearGradient830">
      <stop
         id="stop826"
         style="stop-color:#ffffff;stop-opacity:1"
         offset="0" />
      <stop
         id="stop828"
         style="stop-color:#ffffff;stop-opacity:0"
         offset="1" />
    </linearGradient>
    <filter
       id="filter862"
       style="color-interpolation-filters:sRGB"
       width="1.12"
       height="1.12"
       x="-0.059999999"
       y="-0.059999999">
      <feGaussianBlur
         id="feGaussianBlur864"
         stdDeviation=".4" />
    </filter>
    <filter
       id="filter835"
       style="color-interpolation-filters:sRGB"
       width="1.1439988"
       height="1.1439984"
       x="-0.071999421"
       y="-0.071999216">
      <feGaussianBlur
         id="feGaussianBlur837"
         stdDeviation=".48" />
    </filter>
    <filter
       id="filter839"
       style="color-interpolation-filters:sRGB"
       width="1.1440001"
       height="1.1440001"
       x="-0.072000004"
       y="-0.072000004">
      <feGaussianBlur
         id="feGaussianBlur841"
         stdDeviation=".66" />
    </filter>
    <filter
       inkscape:collect="always"
       style="color-interpolation-filters:sRGB"
       id="filter975"
       x="-0.023520001"
       y="-0.023520001"
       width="1.04704"
       height="1.04704">
      <feGaussianBlur
         inkscape:collect="always"
         stdDeviation="0.1666"
         id="feGaussianBlur977" />
    </filter>
    <linearGradient
       id="linearGradient832-3"
       x1="21"
       x2="25"
       y1="16"
       y2="28"
       gradientTransform="matrix(1.1538462,0,0,1.1538462,-13.461538,-14.46154)"
       gradientUnits="userSpaceOnUse"
       xlink:href="#linearGradient830" />
    <filter
       id="filter831"
       style="color-interpolation-filters:sRGB"
       width="1.1450988"
       height="1.142668"
       x="-0.072549419"
       y="-0.071333981">
      <feGaussianBlur
         id="feGaussianBlur833"
         stdDeviation=".475" />
    </filter>
    <filter
       id="filter831-6"
       style="color-interpolation-filters:sRGB"
       width="1.1517499"
       height="1.1372881"
       x="-0.075874928"
       y="-0.068644048">
      <feGaussianBlur
         id="feGaussianBlur833-2"
         stdDeviation=".457" />
    </filter>
    <filter
       id="filter831-7"
       style="color-interpolation-filters:sRGB"
       width="1.1653967"
       height="1.1272932"
       x="-0.082698353"
       y="-0.063646603">
      <feGaussianBlur
         id="feGaussianBlur833-0"
         stdDeviation=".424" />
    </filter>
    <filter
       id="filter831-0"
       style="color-interpolation-filters:sRGB"
       width="1.1515836"
       height="1.1370924"
       x="-0.07579182"
       y="-0.068546176">
      <feGaussianBlur
         id="feGaussianBlur833-6"
         stdDeviation=".457" />
    </filter>
    <filter
       id="filter835-8"
       style="color-interpolation-filters:sRGB"
       width="1.145297"
       height="1.1427373"
       x="-0.072648522"
       y="-0.071368647">
      <feGaussianBlur
         id="feGaussianBlur837-7"
         stdDeviation=".476" />
    </filter>
    <filter
       id="filter835-2"
       style="color-interpolation-filters:sRGB"
       width="1.1439984"
       height="1.1440002"
       x="-0.071999224"
       y="-0.072000092">
      <feGaussianBlur
         id="feGaussianBlur837-3"
         stdDeviation=".48" />
    </filter>
    <filter
       id="filter835-22"
       style="color-interpolation-filters:sRGB"
       width="1.1426585"
       height="1.1451452"
       x="-0.071329268"
       y="-0.072572586">
      <feGaussianBlur
         id="feGaussianBlur837-8"
         stdDeviation=".475" />
    </filter>
    <filter
       id="filter831-61"
       style="color-interpolation-filters:sRGB"
       width="1.1372639"
       height="1.1517773"
       x="-0.06863197"
       y="-0.075888645">
      <feGaussianBlur
         id="feGaussianBlur833-29"
         stdDeviation=".457" />
    </filter>
    <filter
       id="filter831-78"
       style="color-interpolation-filters:sRGB"
       width="1.1272932"
       height="1.165324"
       x="-0.063646604"
       y="-0.082662003">
      <feGaussianBlur
         id="feGaussianBlur833-4"
         stdDeviation=".424" />
    </filter>
    <filter
       id="filter831-610"
       style="color-interpolation-filters:sRGB"
       width="1.1370958"
       height="1.1516316"
       x="-0.068547902"
       y="-0.075815787">
      <feGaussianBlur
         id="feGaussianBlur833-63"
         stdDeviation=".457" />
    </filter>
  </defs>
  <circle
     id="circle937"
     style="opacity:0.1;fill:#000000;fill-opacity:1;stroke:none;stroke-width:1.7;stroke-linecap:round;stroke-linejoin:round;stroke-miterlimit:4;stroke-dasharray:none;stroke-opacity:1;filter:url(#filter975)"
     cx="13"
     cy="12"
     r="8.5" />
  <circle
     id="path818"
     style="fill:#303446;fill-opacity:1;stroke:none;stroke-width:1.7;stroke-linecap:round;stroke-linejoin:round;stroke-miterlimit:4;stroke-dasharray:none;stroke-opacity:1"
     cx="12.5"
     cy="11.5"
     r="8.5" />
  <circle
     id="circle824"
     style="fill:#EA999C;fill-opacity:1;stroke:none;stroke-width:1.5;stroke-linecap:round;stroke-linejoin:round;stroke-miterlimit:4;stroke-dasharray:none;stroke-opacity:1"
     cx="12.5"
     cy="11.5"
     r="7.5" />
  <path
     id="path824"
     style="opacity:0.2;fill:#EA999C;fill-opacity:1;stroke:none;stroke-width:2.72727;stroke-linecap:round;stroke-linejoin:round;stroke-miterlimit:4;stroke-dasharray:none;stroke-opacity:1"
     d="M 20,11.5 A 7.5,7.5 0 0 1 12.5,19 7.5,7.5 0 0 1 5,11.5 7.5,7.5 0 0 1 12.5,4.0000001 7.5,7.5 0 0 1 20,11.5 Z" />
  <path
     id="path821"
     style="color:#000000;font-style:normal;font-variant:normal;font-weight:normal;font-stretch:normal;font-size:medium;line-height:normal;font-family:sans-serif;font-variant-ligatures:normal;font-variant-position:normal;font-variant-caps:normal;font-variant-numeric:normal;font-variant-alternates:normal;font-feature-settings:normal;text-indent:0;text-align:start;text-decoration:none;text-decoration-line:none;text-decoration-style:solid;text-decoration-color:#000000;letter-spacing:normal;word-spacing:normal;text-transform:none;writing-mode:lr-tb;direction:ltr;text-orientation:mixed;dominant-baseline:auto;baseline-shift:baseline;text-anchor:start;white-space:normal;shape-padding:0;clip-rule:nonzero;display:inline;overflow:visible;visibility:visible;opacity:0.2;isolation:auto;mix-blend-mode:normal;color-interpolation:sRGB;color-interpolation-filters:linearRGB;solid-color:#000000;solid-opacity:1;vector-effect:none;fill:#000000;fill-opacity:1;fill-rule:nonzero;stroke:none;stroke-width:1.00069;stroke-linecap:round;stroke-linejoin:round;stroke-miterlimit:4;stroke-dasharray:none;stroke-dashoffset:0;stroke-opacity:1;filter:url(#filter831-610);color-rendering:auto;image-rendering:auto;shape-rendering:auto;text-rendering:auto;enable-background:accumulate"
     d="m 13.179696,9.2655395 a 0.49889536,0.50328986 60 0 0 -0.216797,0.054687 C 10.893502,10.357842 9.3661329,12.230128 8.7714924,14.456945 8.176887,16.68377 8.5729597,19.05125 9.8574299,20.953039 a 0.49890424,0.50329883 60 0 0 0.6640621,0.152344 0.49890424,0.50329883 60 0 0 0.169922,-0.714844 C 9.5672063,18.726028 9.219793,16.655923 9.7402424,14.706945 10.26071,12.757967 11.598959,11.120961 13.410164,10.212805 A 0.49889536,0.50328986 60 0 0 13.179696,9.2655395 Z m 9.550781,2.5683585 a 0.49792399,0.50330224 60 0 0 -0.41211,0.789063 c 1.122241,1.661099 1.467175,3.725317 0.945313,5.671875 -0.521861,1.946556 -1.860774,3.583822 -3.671875,4.492187 a 0.49829395,0.50367618 60 1 0 0.447265,0.890625 c 0.258659,-0.129739 0.50708,-0.272907 0.748047,-0.427734 1.686793,-1.083742 2.919685,-2.759037 3.441407,-4.705078 0.596255,-2.224045 0.206051,-4.58648 -1.076172,-6.484375 a 0.49792399,0.50330224 60 0 0 -0.421875,-0.226563 z m -4.410157,0.04492 a 0.49593692,0.49994779 30 0 0 -0.203124,0.964844 c 1.114412,0.476384 1.947443,1.441775 2.261718,2.617188 0.314275,1.17541 0.07555,2.430242 -0.648437,3.414062 a 0.49606359,0.50007549 30 0 0 0.15625,0.732422 0.49606359,0.50007549 30 0 0 0.640625,-0.144531 c 0.904481,-1.229096 1.205123,-2.801085 0.8125,-4.269532 -0.392626,-1.468444 -1.435892,-2.672429 -2.828125,-3.267578 a 0.49593692,0.49994779 30 0 0 -0.191407,-0.04687 z m -5.458984,1.449219 a 0.49606359,0.49808729 30 0 0 -0.396484,0.224609 c -0.901469,1.223879 -1.197496,2.791119 -0.802735,4.25586 0.345386,1.281657 1.186756,2.362624 2.324219,3.011718 0.162494,0.09273 0.331875,0.175532 0.50586,0.25 a 0.49593692,0.4979601 30 1 0 0.392578,-0.914062 c -1.114123,-0.47688 -1.947688,-1.43888 -2.263672,-2.611328 -0.316018,-1.17244 -0.08095,-2.424654 0.640625,-3.404297 a 0.49606359,0.49808729 30 0 0 -0.400391,-0.8125 z"
     transform="matrix(0.75,0,0,0.75,0.5,-0.5)" />
  <path
     id="path847"
     style="color:#000000;font-style:normal;font-variant:normal;font-weight:normal;font-stretch:normal;font-size:medium;line-height:normal;font-family:sans-serif;font-variant-ligatures:normal;font-variant-position:normal;font-variant-caps:normal;font-variant-numeric:normal;font-variant-alternates:normal;font-feature-settings:normal;text-indent:0;text-align:start;text-decoration:none;text-decoration-line:none;text-decoration-style:solid;text-decoration-color:#000000;letter-spacing:normal;word-spacing:normal;text-transform:none;writing-mode:lr-tb;direction:ltr;text-orientation:mixed;dominant-baseline:auto;baseline-shift:baseline;text-anchor:start;white-space:normal;shape-padding:0;clip-rule:nonzero;display:inline;overflow:visible;visibility:visible;isolation:auto;mix-blend-mode:normal;color-interpolation:sRGB;color-interpolation-filters:linearRGB;solid-color:#000000;solid-opacity:1;vector-effect:none;fill:#303446;fill-opacity:1;fill-rule:nonzero;stroke:none;stroke-width:0.750517;stroke-linecap:round;stroke-linejoin:round;stroke-miterlimit:4;stroke-dasharray:none;stroke-dashoffset:0;stroke-opacity:1;color-rendering:auto;image-rendering:auto;shape-rendering:auto;text-rendering:auto;enable-background:accumulate"
     d="M 10.009766,6.0742187 A 0.37417152,0.3774674 60 0 0 9.8471683,6.115234 C 8.2951205,6.8934457 7.1495937,8.2976605 6.7036133,9.9677733 6.2576593,11.637892 6.5547138,13.413502 7.5180664,14.839844 A 0.37417818,0.37747412 60 0 0 8.016113,14.954102 0.37417818,0.37747412 60 0 0 8.1435545,14.417969 C 7.3003987,13.169586 7.0398387,11.617007 7.4301758,10.155273 7.8205267,8.6935397 8.8242133,7.4657853 10.182617,6.7846679 A 0.37417152,0.3774674 60 0 0 10.009766,6.0742187 Z m 7.163086,1.9262693 a 0.37344299,0.37747668 60 0 0 -0.309083,0.5917973 c 0.841681,1.2458242 1.100382,2.7939877 0.708985,4.2539067 -0.391396,1.459917 -1.39558,2.687866 -2.753906,3.36914 a 0.37372046,0.37775714 60 1 0 0.335449,0.667968 c 0.193994,-0.0973 0.380309,-0.20468 0.561035,-0.3208 1.265094,-0.812807 2.189764,-2.069278 2.581055,-3.528808 0.447191,-1.668034 0.154538,-3.4398605 -0.807129,-4.8632817 A 0.37344299,0.37747668 60 0 0 17.172852,8.000488 Z m -3.307618,0.03369 a 0.37195269,0.37496084 30 0 0 -0.152343,0.723633 c 0.835809,0.357288 1.460582,1.0813313 1.696289,1.962891 0.235706,0.881557 0.05666,1.822682 -0.486328,2.560547 a 0.37204769,0.37505662 30 0 0 0.117187,0.549316 0.37204769,0.37505662 30 0 0 0.480469,-0.108398 C 16.198869,12.800345 16.42435,11.621353 16.129883,10.520018 15.835414,9.4186848 15.052964,8.515696 14.008789,8.0693343 A 0.37195269,0.37496084 30 0 0 13.865234,8.0341818 Z M 9.770996,9.1210923 A 0.37204769,0.37356547 30 0 0 9.473633,9.289549 c -0.6761017,0.917909 -0.898122,2.093339 -0.6020512,3.191895 0.2590395,0.961243 0.8900669,1.771968 1.7431642,2.258788 0.121871,0.06955 0.248906,0.13165 0.379395,0.1875 a 0.37195269,0.37347008 30 1 0 0.294434,-0.685546 C 10.452982,13.884526 9.8278085,13.163026 9.5908205,12.28369 9.353807,11.40436 9.530108,10.465199 10.071289,9.7304672 A 0.37204769,0.37356547 30 0 0 9.770996,9.1210923 Z" />
</svg>

<svg xmlns="http://www.w3.org/2000/svg" width="24" height="24">
    <defs>
        <filter id="a" width="1.047" height="1.047" x="-.024" y="-.024" style="color-interpolation-filters:sRGB">
            <feGaussianBlur stdDeviation=".167"/>
        </filter>
        <filter id="b" width="1.137" height="1.152" x="-.069" y="-.076" style="color-interpolation-filters:sRGB">
            <feGaussianBlur stdDeviation=".457"/>
        </filter>
    </defs>
    <circle cx="13" cy="12" r="8.5" style="opacity:.1;fill:#000;fill-opacity:1;stroke:none;stroke-width:1.7;stroke-linecap:round;stroke-linejoin:round;stroke-miterlimit:4;stroke-dasharray:none;stroke-opacity:1;filter:url(#a)"/>
    <circle cx="12.5" cy="11.5" r="8.5" style="fill:#303446;fill-opacity:1;stroke:none;stroke-width:1.7;stroke-linecap:round;stroke-linejoin:round;stroke-miterlimit:4;stroke-dasharray:none;stroke-opacity:1"/>
    <circle cx="12.5" cy="11.5" r="7.5" style="fill:#ea999c;fill-opacity:1;stroke:none;stroke-width:1.5;stroke-linecap:round;stroke-linejoin:round;stroke-miterlimit:4;stroke-dasharray:none;stroke-opacity:1"/>
    <path d="M20 11.5a7.5 7.5 0 0 1-7.5 7.5A7.5 7.5 0 0 1 5 11.5 7.5 7.5 0 0 1 12.5 4a7.5 7.5 0 0 1 7.5 7.5" style="opacity:.2;fill:#ea999c;fill-opacity:1;stroke:none;stroke-width:2.72727;stroke-linecap:round;stroke-linejoin:round;stroke-miterlimit:4;stroke-dasharray:none;stroke-opacity:1"/>
    <path d="M13.18 9.266a.499.503 60 0 0-.217.054 8.1 8.1 0 0 0-4.192 5.137 7.94 7.94 0 0 0 1.086 6.496.499.503 60 0 0 .664.152.499.503 60 0 0 .17-.714 6.95 6.95 0 0 1-.95-5.684 7.08 7.08 0 0 1 3.67-4.494.499.503 60 0 0-.231-.947m9.55 2.568a.498.503 60 0 0-.412.789 6.92 6.92 0 0 1 .946 5.672 7.1 7.1 0 0 1-3.672 4.492.498.504 60 1 0 .447.89q.388-.195.748-.427a8.1 8.1 0 0 0 3.442-4.705 7.9 7.9 0 0 0-1.077-6.485.498.503 60 0 0-.422-.226m-4.41.045a.496.5 30 0 0-.203.965 3.95 3.95 0 0 1 2.262 2.617 4.01 4.01 0 0 1-.649 3.414.496.5 30 0 0 .157.732.496.5 30 0 0 .64-.144 5.02 5.02 0 0 0 .813-4.27 4.94 4.94 0 0 0-2.828-3.267.496.5 30 0 0-.192-.047m-5.459 1.449a.496.498 30 0 0-.396.225 4.99 4.99 0 0 0-.803 4.256 4.95 4.95 0 0 0 2.83 3.261.496.498 30 1 0 .393-.914 3.96 3.96 0 0 1-2.264-2.611 3.99 3.99 0 0 1 .64-3.404.496.498 30 0 0-.4-.813" style="color:#000;font-style:normal;font-variant:normal;font-weight:400;font-stretch:normal;font-size:medium;line-height:normal;font-family:sans-serif;font-variant-ligatures:normal;font-variant-position:normal;font-variant-caps:normal;font-variant-numeric:normal;font-variant-alternates:normal;font-feature-settings:normal;text-indent:0;text-align:start;text-decoration:none;text-decoration-line:none;text-decoration-style:solid;text-decoration-color:#000;letter-spacing:normal;word-spacing:normal;text-transform:none;writing-mode:lr-tb;direction:ltr;text-orientation:mixed;dominant-baseline:auto;baseline-shift:baseline;text-anchor:start;white-space:normal;shape-padding:0;clip-rule:nonzero;display:inline;overflow:visible;visibility:visible;opacity:.2;isolation:auto;mix-blend-mode:normal;color-interpolation:sRGB;color-interpolation-filters:linearRGB;solid-color:#000;solid-opacity:1;vector-effect:none;fill:#000;fill-opacity:1;fill-rule:nonzero;stroke:none;stroke-width:1.00069;stroke-linecap:round;stroke-linejoin:round;stroke-miterlimit:4;stroke-dasharray:none;stroke-dashoffset:0;stroke-opacity:1;filter:url(#b);color-rendering:auto;image-rendering:auto;shape-rendering:auto;text-rendering:auto;enable-background:accumulate" transform="matrix(.75 0 0 .75 .5 -.5)"/>
    <path d="M10.01 6.074a.374.377 60 0 0-.163.041 6.07 6.07 0 0 0-3.143 3.853 5.96 5.96 0 0 0 .814 4.872.374.377 60 0 0 .498.114.374.377 60 0 0 .128-.536 5.2 5.2 0 0 1-.714-4.263 5.3 5.3 0 0 1 2.753-3.37.374.377 60 0 0-.173-.71M17.173 8a.373.377 60 0 0-.31.592 5.2 5.2 0 0 1 .71 4.254 5.32 5.32 0 0 1-2.754 3.37.374.378 60 1 0 .335.667q.29-.146.561-.32a6.07 6.07 0 0 0 2.581-3.53 5.93 5.93 0 0 0-.807-4.863.373.377 60 0 0-.316-.17m-3.308.034a.372.375 30 0 0-.152.724 2.97 2.97 0 0 1 1.696 1.963 3 3 0 0 1-.486 2.56.372.375 30 0 0 .117.55.372.375 30 0 0 .48-.109c.679-.922.904-2.1.61-3.202a3.7 3.7 0 0 0-2.121-2.45.372.375 30 0 0-.144-.036M9.771 9.121a.372.374 30 0 0-.297.169 3.74 3.74 0 0 0-.602 3.191 3.71 3.71 0 0 0 2.122 2.447.372.373 30 1 0 .295-.686 2.97 2.97 0 0 1-1.698-1.958 3 3 0 0 1 .48-2.554.372.374 30 0 0-.3-.609" style="color:#000;font-style:normal;font-variant:normal;font-weight:400;font-stretch:normal;font-size:medium;line-height:normal;font-family:sans-serif;font-variant-ligatures:normal;font-variant-position:normal;font-variant-caps:normal;font-variant-numeric:normal;font-variant-alternates:normal;font-feature-settings:normal;text-indent:0;text-align:start;text-decoration:none;text-decoration-line:none;text-decoration-style:solid;text-decoration-color:#000;letter-spacing:normal;word-spacing:normal;text-transform:none;writing-mode:lr-tb;direction:ltr;text-orientation:mixed;dominant-baseline:auto;baseline-shift:baseline;text-anchor:start;white-space:normal;shape-padding:0;clip-rule:nonzero;display:inline;overflow:visible;visibility:visible;isolation:auto;mix-blend-mode:normal;color-interpolation:sRGB;color-interpolation-filters:linearRGB;solid-color:#000;solid-opacity:1;vector-effect:none;fill:#303446;fill-opacity:1;fill-rule:nonzero;stroke:none;stroke-width:.750517;stroke-linecap:round;stroke-linejoin:round;stroke-miterlimit:4;stroke-dasharray:none;stroke-dashoffset:0;stroke-opacity:1;color-rendering:auto;image-rendering:auto;shape-rendering:auto;text-rendering:auto;enable-background:accumulate"/>
</svg>
